_site/images/features-page/circle-folder-white.svg

<svg fill="none" height="44" viewBox="0 0 44 44" width="44" xmlns="http://www.w3.org/2000/svg"><circle cx="22" cy="22" r="21" stroke="#f9fcff"/><path clip-rule="evenodd" d="m29 15.5h-6.28l-.32-1c-.4252-1.2026-1.5644-2.0049-2.84-2h-4.56c-1.6569 0-3 1.3432-3 3v13c0 1.6569 1.3431 3 3 3h14c1.6569 0 3-1.3431 3-3v-10c0-1.6568-1.3431-3-3-3zm-9.73 5c.5362-.9288 1.5275-1.5007 2.6-1.5 1.6568 0 3 1.3431 3 3s-1.3432 3-3 3c-.5523 0-1-.4477-1-1s.4477-1 1-1 1-.4477 1-1c.0032-.4554-.3017-.8554-.7417-.9731-.4399-.1176-.9038.0769-1.1283.4731-.1703.3255-.5053.5314-.8726.5364s-.7077-.1918-.8867-.5126c-.179-.3207-.1678-.7138.0293-1.0238zm3.15 5.67c.0564.0353.1071.0792.15.13.0941.083.1691.1853.22.3.0525.1233.0797.256.08.39-.0038.2638-.1116.5154-.3.7-.0913.0936-.2.1683-.32.22-.1209.0478-.25.0716-.38.07-.1334.0029-.266-.0209-.39-.07-.12-.0517-.2287-.1264-.32-.22-.1848-.1862-.2889-.4376-.29-.7-.0029-.1333.0209-.2659.07-.39.0517-.12.1265-.2287.22-.32.2344-.2377.5721-.3427.9-.28l.19.08zm6.58 3.33c.5523 0 1-.4477 1-1v-10c0-.5523-.4477-1-1-1h-7c-.4299.0011-.8124-.2727-.95-.68l-.54-1.64c-.1376-.4073-.5201-.6811-.95-.68h-4.56c-.5523 0-1 .4477-1 1v13c0 .5523.4477 1 1 1z" fill="#f9fcff" fill-rule="evenodd"/></svg>

<svg width="44" height="44" viewBox="0 0 44 44" fill="none" xmlns="http://www.w3.org/2000/svg">
<circle cx="22" cy="22" r="21" stroke="#F9FCFF"/>
<path fill-rule="evenodd" clip-rule="evenodd" d="M29 15.5H22.72L22.4 14.5C21.9748 13.2974 20.8356 12.4951 19.56 12.5H15C13.3431 12.5 12 13.8432 12 15.5V28.5C12 30.1569 13.3431 31.5 15 31.5H29C30.6569 31.5 32 30.1569 32 28.5V18.5C32 16.8432 30.6569 15.5 29 15.5ZM19.27 20.5C19.8062 19.5712 20.7975 18.9993 21.87 19C23.5268 19 24.87 20.3431 24.87 22C24.87 23.6569 23.5268 25 21.87 25C21.3177 25 20.87 24.5523 20.87 24C20.87 23.4477 21.3177 23 21.87 23C22.4223 23 22.87 22.5523 22.87 22C22.8732 21.5446 22.5683 21.1446 22.1283 21.0269C21.6884 20.9093 21.2245 21.1038 21 21.5C20.8297 21.8255 20.4947 22.0314 20.1274 22.0364C19.7601 22.0414 19.4197 21.8446 19.2407 21.5238C19.0617 21.2031 19.0729 20.81 19.27 20.5ZM22.42 26.17C22.4764 26.2053 22.5271 26.2492 22.57 26.3C22.6641 26.383 22.7391 26.4853 22.79 26.6C22.8425 26.7233 22.8697 26.856 22.87 26.99C22.8662 27.2538 22.7584 27.5054 22.57 27.69C22.4787 27.7836 22.37 27.8583 22.25 27.91C22.1291 27.9578 22 27.9816 21.87 27.98C21.7366 27.9829 21.604 27.9591 21.48 27.91C21.36 27.8583 21.2513 27.7836 21.16 27.69C20.9752 27.5038 20.8711 27.2524 20.87 26.99C20.8671 26.8567 20.8909 26.7241 20.94 26.6C20.9917 26.48 21.0665 26.3713 21.16 26.28C21.3944 26.0423 21.7321 25.9373 22.06 26L22.25 26.08L22.42 26.17ZM29 29.5C29.5523 29.5 30 29.0523 30 28.5V18.5C30 17.9477 29.5523 17.5 29 17.5H22C21.5701 17.5011 21.1876 17.2273 21.05 16.82L20.51 15.18C20.3724 14.7727 19.9899 14.4989 19.56 14.5H15C14.4477 14.5 14 14.9477 14 15.5V28.5C14 29.0523 14.4477 29.5 15 29.5H29Z" fill="#F9FCFF"/>
</svg>
